icons/money-bitcoin.svg

<svg width="24" height="24" viewBox="0 0 24 24" fill="none" xmlns="http://www.w3.org/2000/svg">
<path fill-rule="evenodd" clip-rule="evenodd" d="M10 2C10.5523 2 11 2.44772 11 3V5H13V3C13 2.44772 13.4477 2 14 2C14.5523 2 15 2.44772 15 3V5C16.0609 5 17.0783 5.42143 17.8284 6.17157C18.5786 6.92172 19 7.93913 19 9C19 10.0609 18.5786 11.0783 17.8284 11.8284C17.7692 11.8877 17.7082 11.9449 17.6458 12C17.7082 12.0551 17.7692 12.1123 17.8284 12.1716C18.5786 12.9217 19 13.9391 19 15C19 16.0609 18.5786 17.0783 17.8284 17.8284C17.0783 18.5786 16.0609 19 15 19V21C15 21.5523 14.5523 22 14 22C13.4477 22 13 21.5523 13 21V19H11V21C11 21.5523 10.5523 22 10 22C9.44772 22 9 21.5523 9 21V19H7C6.44772 19 6 18.5523 6 18C6 17.4477 6.44772 17 7 17H8V7H7C6.44772 7 6 6.55228 6 6C6 5.44772 6.44772 5 7 5H9V3C9 2.44772 9.44772 2 10 2ZM10 7V11H15C15.5304 11 16.0391 10.7893 16.4142 10.4142C16.7893 10.0391 17 9.53043 17 9C17 8.46957 16.7893 7.96086 16.4142 7.58579C16.0391 7.21071 15.5304 7 15 7H10ZM15 13H10V17H15C15.5304 17 16.0391 16.7893 16.4142 16.4142C16.7893 16.0391 17 15.5304 17 15C17 14.4696 16.7893 13.9609 16.4142 13.5858C16.0391 13.2107 15.5304 13 15 13Z" fill="black"/>
</svg>

<svg
  width="24"
  height="24"
  viewBox="0 0 24 24"
  xmlns="http://www.w3.org/2000/svg"
>
  <path
    fill-rule="evenodd"
    clip-rule="evenodd"
    d="M10 2a1 1 0 0 1 1 1v2h2V3a1 1 0 1 1 2 0v2a4 4 0 0 1 2.646 7A4 4 0 0 1 15 19v2a1 1 0 1 1-2 0v-2h-2v2a1 1 0 1 1-2 0v-2H7a1 1 0 1 1 0-2h1V7H7a1 1 0 0 1 0-2h2V3a1 1 0 0 1 1-1zm0 5v4h5a2 2 0 0 0 0-4h-5zm5 6h-5v4h5a2 2 0 0 0 0-4z"
  />
</svg>
